icon/pk/heart.svg

<svg viewBox="0 0 48 48" fill="none" xmlns="http://www.w3.org/2000/svg" height="1em" width="1em">
  <path d="M14.5397 20.0187C12.8522 17.9435 11.2675 17.498 9.78564 18.6822C7.5629 20.4584 6.92453 26.6497 8.71324 32.1087C10.502 37.5678 13.9801 45.0018 21.0016 45.0018C28.0231 45.0018 29.684 37.5223 32.5485 33.0002C35.413 28.4781 36.9285 24.1153 34.1208 18.6822" stroke="black" stroke-width="4" stroke-linecap="round" stroke-linejoin="round"/>
  <path d="M11 18.037C9.29707 15.4429 7.96374 13.4307 6.99996 12.0003C5.5543 9.85474 9.25107 7.08175 11 8.96818C12.1659 10.2258 13.7148 12.0781 15.6466 14.5251" stroke="black" stroke-width="4" stroke-linecap="round"/>
  <path d="M15.0236 25.6397C14.5391 19.576 14.9333 15.6277 16.2062 13.7948C18.1155 11.0456 21.6631 10.0032 25.0035 10.0032C26.9924 10.0032 28.8087 10.8503 30.4525 12.5445" stroke="black" stroke-width="4" stroke-linecap="round" stroke-linejoin="round"/>
  <path fill-rule="evenodd" clip-rule="evenodd" d="M41.0003 12.6129C41.5858 14.6493 40.6294 16.5098 37.6844 16.9311C34.7393 17.3525 32.5313 18.8334 30.9388 20.0792C29.3463 21.3249 26.4983 25.1047 25.9361 27.0024C25.3738 28.9001 22.1602 27.1548 21.2971 26.3972C20.434 25.6395 19.5855 23.9807 21.2971 22.2458C23.0086 20.5109 22.6383 20.1647 22.6383 18.4053C22.6383 16.646 32.0003 10.8264 37.2729 10.2942C38.4449 10.2258 40.4147 10.5765 41.0003 12.6129Z" stroke="black" stroke-width="4"/>
  <path d="M23.0078 4.00024V9.26294" stroke="black" stroke-width="4" stroke-linecap="round"/>
  <path d="M20.3066 10.7179C17.2888 6.92544 14.8555 4.80879 13.0068 4.36792" stroke="black" stroke-width="4" stroke-linecap="round"/>
  <path d="M17.0039 7.02904L17.9944 2.96167" stroke="black" stroke-width="4" stroke-linecap="round"/>
  <path d="M35.6128 10.7175C35.2905 11.822 35.2905 12.8576 35.6128 13.8242C35.935 14.7909 36.6255 15.8265 37.6842 16.931" stroke="black" stroke-width="4" stroke-linecap="round"/>
</svg>

<svg width="48" height="48" fill="none" xmlns="http://www.w3.org/2000/svg"><path d="M14.54 20.019c-1.688-2.075-3.272-2.521-4.754-1.337-2.223 1.776-2.861 7.968-1.073 13.427 1.789 5.459 5.267 12.893 12.289 12.893 7.021 0 8.682-7.48 11.546-12.002 2.865-4.522 4.38-8.885 1.573-14.318" stroke="#000" stroke-width="4" stroke-linecap="round" stroke-linejoin="round"/><path d="M11 18.037A643.145 643.145 0 0 0 7 12c-1.446-2.145 2.251-4.918 4-3.032 1.166 1.258 2.715 3.11 4.647 5.557" stroke="#000" stroke-width="4" stroke-linecap="round"/><path d="M15.024 25.64c-.485-6.064-.09-10.012 1.182-11.845 1.91-2.75 5.457-3.792 8.797-3.792 1.99 0 3.806.847 5.45 2.541" stroke="#000" stroke-width="4" stroke-linecap="round" stroke-linejoin="round"/><path clip-rule="evenodd" d="M41 12.613c.586 2.036-.37 3.897-3.316 4.318-2.945.421-5.153 1.902-6.745 3.148-1.593 1.246-4.44 5.026-5.003 6.923-.562 1.898-3.776.153-4.639-.605-.863-.757-1.712-2.416 0-4.151 1.712-1.735 1.341-2.081 1.341-3.84 0-1.76 9.362-7.58 14.635-8.112 1.172-.068 3.142.282 3.727 2.319Z" stroke="#000" stroke-width="4"/><path d="M23.008 4v5.263M20.307 10.718c-3.018-3.793-5.451-5.91-7.3-6.35M17.004 7.029l.99-4.067M35.613 10.717c-.322 1.105-.322 2.14 0 3.107.322.967 1.013 2.002 2.071 3.107" stroke="#000" stroke-width="4" stroke-linecap="round"/></svg>
